!!!OTL: ICH SCHIESS DEN HIRSCH IM GRUENEN FORST
!!!ARE: Europa, Mitteleuropa, Deutschland; Siebenbuergen ?
!!!SCT: B0597
!!!YEM: Copyright 1995, estate of Helmut Schaffrath.
**kern
*ICvox
*Ivox
*M6/8
*k[f#c#]
*D:
{8a
=1
4a
8d
4d
8d
=2
4d
8d
4d}
{8A
=3
4d
8e
4fn
8e
=4
4.d
4r}
{8a
=5
4a
8d
4d
8d
=6
4d
8d
4d}
{8d
=7
4cn
8fn
4a
8g
=8
4.fn
4r}
{8a
=9
4a
8d
4dd
8b-
=10
4a
8fn
4d}
{8a
=11
4a
8d
4dd
8b-
=12
2a
8r}
{8cn
=13
4fn
8g
4a
8b-
=14
4dd
8ccn
4a}
{8a
=15
4a
8g
4b-
8e
=16
8.g
16fn
16e
16d
4cn}
{8cn
=17
4fn
8g
4a
8b-
=18
4dd
8ccn
4a}
{8a
=19
4a
8g
4b-
8a
=20
2d
8r}
==
!!!AGN: Staende -, Jaeger - Lied
!!!ONB: ESAC (Essen Associative Code) Database: BOEHME
!!!AMT: compound duple
!!!AIN: vox
!!!EED: Helmut Schaffrath
!!!EEV: 1.0
*-
